assets/images/star-icon.svg

<svg width="11" height="10" viewBox="0 0 11 10" fill="none" xmlns="http://www.w3.org/2000/svg">
<path d="M4.92937 0.756232C5.10898 0.203445 5.89102 0.203444 6.07063 0.75623L6.82463 3.0768C6.90496 3.32401 7.13533 3.49139 7.39527 3.49139H9.83526C10.4165 3.49139 10.6582 4.23516 10.1879 4.5768L8.21393 6.01099C8.00364 6.16378 7.91565 6.4346 7.99597 6.68181L8.74997 9.00238C8.92958 9.55517 8.29689 10.0148 7.82667 9.6732L5.85267 8.23901C5.64238 8.08622 5.35762 8.08622 5.14733 8.23901L3.17334 9.6732C2.70311 10.0148 2.07042 9.55517 2.25003 9.00238L3.00403 6.68181C3.08435 6.4346 2.99636 6.16378 2.78607 6.01099L0.812072 4.5768C0.341844 4.23516 0.583509 3.49139 1.16474 3.49139H3.60473C3.86467 3.49139 4.09504 3.32401 4.17537 3.0768L4.92937 0.756232Z" fill="white"/>
</svg>

<svg width="11" height="10" fill="none" xmlns="http://www.w3.org/2000/svg"><path d="M4.93.756c.179-.553.961-.553 1.14 0l.755 2.32a.6.6 0 0 0 .57.415h2.44c.581 0 .823.744.353 1.086L8.214 6.01a.6.6 0 0 0-.218.67l.754 2.321c.18.553-.453 1.013-.923.671L5.853 8.24a.6.6 0 0 0-.706 0L3.173 9.673c-.47.342-1.103-.118-.923-.67l.754-2.321a.6.6 0 0 0-.218-.671L.812 4.577c-.47-.342-.228-1.086.353-1.086h2.44a.6.6 0 0 0 .57-.414L4.93.757Z" fill="#fff"/></svg>
